dist/images/icons/percent.svg

<svg width="30" height="30" viewBox="0 0 30 30" fill="none" xmlns="http://www.w3.org/2000/svg">
<path d="M8.88589 12.8644L8.8848 12.883C8.81089 14.1437 9.53607 15.3248 10.7328 15.8911L10.7451 15.8969C11.167 16.0934 11.5128 16.4175 11.731 16.8204L11.7359 16.8291C12.3389 17.9473 13.586 18.6251 14.9156 18.5571L14.9358 18.556C15.4179 18.5297 15.8966 18.6508 16.3046 18.9026C17.4304 19.5884 18.8595 19.5884 19.9853 18.9026C20.3933 18.6508 20.8719 18.5297 21.3541 18.556L21.3743 18.5571C22.7016 18.6256 23.9504 17.9473 24.5548 16.8273L24.5578 16.8212C24.7768 16.4172 25.1234 16.0926 25.5467 15.8958L25.5565 15.8911C26.7532 15.3246 27.4787 14.1437 27.4045 12.8827L27.4034 12.8652C27.3789 12.4211 27.5054 11.9816 27.764 11.6148C28.5082 10.5577 28.5082 9.16391 27.7642 8.10659C27.506 7.74008 27.3789 7.30079 27.4034 6.85672L27.4045 6.83813C27.4787 5.57711 26.7532 4.39629 25.5554 3.82952L25.5445 3.82421C25.1234 3.6282 24.7784 3.30577 24.56 2.90394L24.5537 2.89198C23.9504 1.77385 22.7016 1.09632 21.3743 1.16405L21.3538 1.16511C20.8719 1.19141 20.3933 1.0703 19.9856 0.818516H19.985C18.8592 0.13276 17.4301 0.13276 16.3043 0.818516C15.8963 1.07003 15.4177 1.19114 14.9355 1.16485L14.9153 1.16378C13.5877 1.09526 12.3391 1.77358 11.7361 2.89145L11.7315 2.89969C11.5131 3.30338 11.167 3.62767 10.7445 3.82447L10.7331 3.82979C9.53634 4.39602 8.81089 5.57711 8.88507 6.83813L8.88616 6.85566C8.91071 7.29973 8.78416 7.73928 8.52562 8.1058C7.78135 9.16311 7.78135 10.5572 8.52562 11.6143C8.78389 11.9808 8.91071 12.4203 8.88589 12.8644ZM9.44498 8.72356C9.84398 8.15785 10.0395 7.47953 10.0013 6.79431L10.0002 6.77572C9.96098 5.94017 10.4426 5.16411 11.2201 4.80902L11.2297 4.8045C11.8676 4.50704 12.3899 4.01729 12.7193 3.40803L12.7248 3.39793C13.1254 2.65481 13.9646 2.20437 14.8559 2.25058L14.8755 2.25138C15.5887 2.29042 16.2964 2.11141 16.8997 1.73905C17.6614 1.27507 18.6279 1.27507 19.3897 1.73905C19.9929 2.11088 20.7006 2.29015 21.4135 2.25164L21.4332 2.25058C22.3288 2.2049 23.1639 2.65481 23.5634 3.39581L23.5708 3.40935C23.9003 4.01782 24.422 4.50678 25.0591 4.80397L25.0683 4.80849C25.8582 5.18244 26.3376 5.95451 26.2893 6.77598L26.2882 6.79537C26.2501 7.4806 26.4459 8.15865 26.8449 8.72436C27.3271 9.40932 27.3268 10.3123 26.8443 10.997C26.4456 11.563 26.2501 12.2413 26.2882 12.9265L26.2893 12.9449C26.3376 13.7663 25.8582 14.5387 25.0681 14.9129L25.0599 14.9166C24.4214 15.2146 23.8986 15.7049 23.5689 16.3152L23.5648 16.3232C23.1639 17.0663 22.3261 17.517 21.4335 17.4705L21.4141 17.4695C20.7009 17.4307 19.9929 17.61 19.3894 17.9821C18.6279 18.4458 17.6614 18.4458 16.8999 17.9821C16.3512 17.6434 15.7147 17.4639 15.065 17.4644C15.002 17.4644 14.9388 17.466 14.8755 17.4695L14.8559 17.4703C13.9763 17.5247 13.1442 17.0764 12.724 16.3218L12.7182 16.3115C12.3893 15.7033 11.8679 15.2146 11.2311 14.9174L11.2207 14.9124C10.4306 14.5384 9.95116 13.7661 9.9997 12.9449L10.0008 12.9255C10.0387 12.2403 9.84289 11.5619 9.44416 10.9965C8.96225 10.3115 8.96253 9.40852 9.44498 8.72409V8.72356Z" fill="#00B4E3"/>
<path d="M14.5409 15.4836C14.8024 15.6427 15.1469 15.5649 15.3102 15.3102L21.9268 4.98776C22.0348 4.82283 22.0438 4.61407 21.95 4.44117C21.8562 4.26801 21.674 4.15752 21.4733 4.15142C21.2725 4.14531 21.0838 4.24464 20.9791 4.41169L14.3628 14.7341C14.1994 14.9891 14.279 15.3246 14.5409 15.4836Z" fill="#00B4E3"/>
<path d="M15.1338 9.88738C16.4938 9.88738 17.6006 8.65849 17.6006 7.14808C17.6006 5.63766 16.4938 4.40904 15.1338 4.40904C13.7737 4.40904 12.6672 5.63766 12.6672 7.14808C12.6672 8.65849 13.7737 9.88738 15.1338 9.88738ZM15.1338 5.4969C15.878 5.4969 16.4835 6.23763 16.4835 7.14808C16.4835 8.05852 15.878 8.79952 15.1338 8.79952C14.3898 8.79952 13.7843 8.05826 13.7843 7.14808C13.7843 6.2379 14.3898 5.4969 15.1338 5.4969Z" fill="#00B4E3"/>
<path d="M18.689 12.5736C18.689 14.084 19.7955 15.3126 21.1555 15.3126C22.5156 15.3126 23.6224 14.0837 23.6224 12.5736C23.6224 11.0637 22.5159 9.83453 21.1558 9.83453C19.7955 9.83453 18.689 11.0629 18.689 12.5736ZM22.5053 12.5736C22.5053 13.484 21.8998 14.2247 21.1555 14.2247C20.4116 14.2247 19.8061 13.484 19.8061 12.5736C19.8061 11.6631 20.4116 10.9224 21.1555 10.9224C21.8998 10.9224 22.5053 11.6626 22.5053 12.5736Z" fill="#00B4E3"/>
<path d="M29.9275 21.6058C29.1879 20.3275 27.5477 19.8407 26.2018 20.4999L21.8265 22.513C21.2224 21.4191 20.0636 20.7227 18.7883 20.6876L14.7492 20.5793C14.1097 20.5615 13.4821 20.4035 12.9135 20.1177L12.5025 19.9102C10.3982 18.842 7.8899 18.8447 5.78773 19.9172L5.81336 19.0104C5.82182 18.71 5.57882 18.4599 5.27037 18.4516L0.8413 18.3329C0.532847 18.3247 0.276213 18.5613 0.267758 18.8617L0.00021409 28.3271C-0.00824044 28.6275 0.234758 28.8777 0.543211 28.8859L4.97228 29.0046H4.98782C5.29028 29.0043 5.53764 28.7698 5.54609 28.4756L5.55864 28.0227L6.70927 27.4228C7.1609 27.1861 7.68917 27.1298 8.18253 27.2658L15.0533 29.1438C15.0653 29.1472 15.0773 29.1499 15.0896 29.1525C15.5862 29.2537 16.0924 29.3045 16.5999 29.3042C17.6745 29.3047 18.7365 29.0792 19.7131 28.6426C19.7371 28.632 19.7603 28.6198 19.7824 28.606L29.7445 22.3303C29.993 22.1741 30.0731 21.8562 29.9275 21.6058ZM1.1323 27.8132L1.36902 19.4356L4.68155 19.5243L4.44455 27.9021L1.1323 27.8132ZM19.2097 27.6705C17.9963 28.2039 16.6411 28.351 15.3369 28.0912L8.48444 26.2186C7.71344 26.0061 6.88763 26.0943 6.18209 26.4637L5.59409 26.7702L5.75173 21.2C7.61472 19.9931 10.0043 19.8691 11.9887 20.8759L12.3997 21.0834C13.118 21.4446 13.9106 21.644 14.7187 21.6666L18.7577 21.775C19.8923 21.8066 20.8558 22.5932 21.086 23.6758L15.0697 23.5146C14.7612 23.5064 14.5046 23.743 14.4961 24.0434C14.4877 24.3438 14.7307 24.5939 15.0391 24.6022L21.6786 24.7801H21.6945C21.9966 24.7799 22.244 24.5453 22.2525 24.2511C22.2593 24.0147 22.241 23.778 22.1985 23.5454L26.6853 21.4804L26.6984 21.4743C27.335 21.1604 28.1049 21.2653 28.6282 21.7372L19.2097 27.6705Z" fill="#00B4E3"/>
</svg>

<svg width="30" height="30" viewBox="0 0 30 30" fill="none" xmlns="http://www.w3.org/2000/svg"><path d="M8.886 12.864l-.001.019c-.074 1.26.651 2.442 1.848 3.008l.012.006c.422.196.768.52.986.923l.005.01c.603 1.117 1.85 1.795 3.18 1.727l.02-.001c.482-.026.96.095 1.369.347a3.55 3.55 0 003.68 0 2.363 2.363 0 011.37-.347l.02.001c1.327.069 2.575-.61 3.18-1.73l.003-.006c.219-.404.565-.728.989-.925l.01-.005c1.196-.566 1.922-1.747 1.848-3.008l-.002-.018a1.979 1.979 0 01.361-1.25 3.036 3.036 0 000-3.508 1.98 1.98 0 01-.36-1.25v-.019c.075-1.26-.65-2.442-1.849-3.008l-.01-.006a2.15 2.15 0 01-.985-.92l-.006-.012c-.604-1.118-1.852-1.796-3.18-1.728l-.02.001A2.361 2.361 0 0119.986.82h-.001a3.55 3.55 0 00-3.68 0 2.365 2.365 0 01-1.37.346l-.02-.001c-1.327-.069-2.576.61-3.179 1.727l-.005.009a2.153 2.153 0 01-.986.924l-.012.006c-1.197.566-1.922 1.747-1.848 3.008l.001.018c.025.444-.102.883-.36 1.25a3.036 3.036 0 000 3.508c.258.367.385.806.36 1.25zm.559-4.14a3.05 3.05 0 00.556-1.93v-.018a2.062 2.062 0 011.22-1.967l.009-.005a3.252 3.252 0 001.49-1.396l.005-.01c.4-.743 1.24-1.194 2.13-1.147h.02a3.49 3.49 0 002.025-.512 2.401 2.401 0 012.49 0 3.5 3.5 0 002.023.513l.02-.001c.896-.046 1.73.404 2.13 1.145l.008.013c.33.609.851 1.098 1.488 1.395l.01.004c.79.374 1.269 1.147 1.22 1.968v.02a3.05 3.05 0 00.556 1.928 1.966 1.966 0 010 2.273 3.054 3.054 0 00-.557 1.93l.001.018c.049.821-.43 1.594-1.22 1.968l-.01.004a3.255 3.255 0 00-1.49 1.398l-.004.008c-.401.743-1.239 1.194-2.132 1.148l-.019-.002a3.499 3.499 0 00-2.025.513 2.401 2.401 0 01-2.49 0 3.49 3.49 0 00-2.024-.512h-.02a2.276 2.276 0 01-2.131-1.148l-.006-.01a3.248 3.248 0 00-1.487-1.395l-.01-.005c-.79-.374-1.27-1.146-1.221-1.967v-.02a3.053 3.053 0 00-.556-1.929 1.966 1.966 0 01.001-2.272z" fill="#00B4E3"/><path d="M14.54 15.484c.262.159.607.08.77-.174l6.617-10.322a.532.532 0 00.023-.547.56.56 0 00-.477-.29.562.562 0 00-.494.26l-6.616 10.323a.535.535 0 00.178.75zm.594-5.597c1.36 0 2.467-1.229 2.467-2.739 0-1.51-1.107-2.739-2.467-2.739s-2.467 1.229-2.467 2.74c0 1.51 1.107 2.738 2.467 2.738zm0-4.39c.744 0 1.35.74 1.35 1.651 0 .91-.606 1.652-1.35 1.652-.744 0-1.35-.742-1.35-1.652 0-.91.606-1.651 1.35-1.651zm3.555 7.077c0 1.51 1.107 2.739 2.466 2.739 1.36 0 2.467-1.23 2.467-2.74 0-1.51-1.106-2.738-2.466-2.738s-2.467 1.228-2.467 2.739zm3.816 0c0 .91-.605 1.65-1.35 1.65-.743 0-1.349-.74-1.349-1.65 0-.91.606-1.652 1.35-1.652.744 0 1.35.74 1.35 1.652zm7.422 9.032c-.74-1.279-2.38-1.765-3.725-1.106l-4.376 2.013a3.576 3.576 0 00-3.038-1.825l-4.039-.109a4.36 4.36 0 01-1.835-.461l-.412-.208a7.422 7.422 0 00-6.714.007l.025-.907a.55.55 0 00-.543-.558l-4.429-.12a.552.552 0 00-.573.53L0 28.327a.55.55 0 00.543.559l4.43.119h.015c.302 0 .55-.235.558-.53l.013-.452 1.15-.6c.452-.237.98-.293 1.474-.157l6.87 1.878a7.543 7.543 0 001.547.16 7.622 7.622 0 003.113-.661.552.552 0 00.07-.037l9.961-6.276a.535.535 0 00.183-.724zM1.132 27.813l.237-8.377 3.313.088-.237 8.378-3.313-.089zm18.078-.142a6.486 6.486 0 01-3.873.42L8.484 26.22a3.162 3.162 0 00-2.302.245l-.588.306.158-5.57a6.28 6.28 0 016.237-.324l.41.207a5.51 5.51 0 002.32.584l4.039.108c1.134.032 2.098.818 2.328 1.9l-6.016-.16a.552.552 0 00-.574.528.55.55 0 00.543.56l6.64.177h.016a.553.553 0 00.558-.529 3.386 3.386 0 00-.055-.706l4.487-2.065.013-.006a1.742 1.742 0 011.93.263l-9.418 5.934z" fill="#00B4E3"/></svg>
